X:1
T:Danse créole
T:à ma nièce, Antoinette Chaminade
T:__________
T:Danse créole
T:Op. 94
T:Cécile CHAMINADE (1857-1944)
T:Domaine public - Première publication: 1898
T:Domaine public - Première publication: 1898
T:Domaine public - Première publication: 1898
T:Domaine public - Première publication: 1898
T:Domaine public - Première publication: 1898
T:Domaine public - Première publication: 1898
C:Cécile CHAMINADE (1857-1944)
Z:Domaine public - Première publication: 1898
%%score { ( 1 3 ) | ( 2 4 ) }
L:1/8
Q:1/4=96
M:4/4
K:Gb
V:1 treble nm="Piano"
V:3 treble 
V:2 bass 
V:4 bass 
V:1
!mf!"^Allegretto" B/ .d.A | .c z [GB-]2 B(A{/B} (3AGF) | A z (G2- G>!p![DB].[Gd].[Be]) | %3
 (.[dg]z/[Be]/.[Gd].[DB]) (.fz/[A=c]/.[GB].=C) | .e z!<(! (!>![Ad-]2 d>!<)!_c.e.B) | %5
 .d z!<(! (!>!c2- c!<)!B (3BA=G) | [_FB] z [EA]2- [EA] z/!p! ([_Ge]/.[cg].[=Fe]) | %7
 ([Gd]>[DB][B,G].E) A2 (B3/2B/4A/4) | [B,G]4- [B,G] z/!ff! ([db]/ .[gd'].[da]) | %9
 [gc'] z (!>![dgb-]2 ba{/b} (3agf) | a z ([Bg]2- [Bg]>[db]!ff!.[gd'].[be']) | %11
 (.[d'g']z/[be']/.[gd'].[db]) (.[=c'f']z/[ac']/.[gb].=c) | %12
 .e' z (!>![dd']2- [dd']>[_c_c'].[ee'].[Bb]) | [dd'] z !>![cc']2- [cc'][Bb] (3([Bb][Aa][=G=g]) | %14
 [Bb] z !>![Aea]2- [Aea] z/!pp! ([Ge]/.[cg].[Fe]) | ([Gd]>[DB].[B,G].E) A2 (B3/2B/4A/4) | %16
 [B,G]4 [Bg] z/!f! B/ .[Bd].[=ce] | !^![df]>"^m.g."b.[df].[=ce] !^![df]>"^m.g."b.[df].[=ce] | %18
 d/e/=c/d/ B2- B/!p!c/A/B/ G/A/F/G/ | (E>[GB]).E.D (E>[GB]).E.D | %20
 E/F/D/E/ !fermata!F2- F!mf! z/ f/ .a.e | .g z (!>!f2- fe{/f} (3ed=c | %22
 e) z d2- d!f! z/ (D/ .F)!^![=G,=E=G] | %23
 (!^![A,FA]>F.A)!^![B,=GB] (!^![=CA=c]>A.c)[Q:1/4=90]!^![=D=B=d] | %24
[Q:1/4=72] !^![=E=G=c=e]>!^![F=Acf]- !fermata![FAcf]2- [FAcf] z/!ff![Q:1/4=96]"^a Tempo" [Bb]/ [dd'][_e=c'_e'] | %25
 (!^![f=d'f']>[bb']f')[e=c'e'] (!^![fd'f']>[bb']f')!^![=ce] | %26
 (!^![Bd]/e/!^![F=c]/d/) [FB]2- [FB]/!p!=c/A/B/ G/A/F/G/ | (E>[GB].E).D (E>[GB].E).D | %28
 E/F/D/E/ F2- F z x2 |!<(! z [D=EB]/ z/ x2 z!<)!!f! [=A,_EF]/ z/ x2 | %30
!ff! z!<(! [Bd=eb]/ z/ x2 z [f=a_e'f']/!<)! z/ x2 | %31
!p! z/[I:staff +1] C,/[I:staff -1]z/[I:staff +1]B,,/[I:staff -1]z/[I:staff +1]A,,/[I:staff -1]z/[I:staff +1]G,,/[I:staff -1] z[I:staff +1] [D,G,B,][I:staff -1] z[I:staff +1] [=C,F,=A,] | %32
[I:staff -1] z3/2 (f/!mf! .f.=c) (e>d.f.c) | (e>df_c)[Q:1/4=88] (e>B[Q:1/4=80].d.A) | %34
"^a Tempo"[Q:1/4=96]!p! .c z B2- B(A{/B} (3AGF) | A z ([B,G]2- [B,G]>[DB].[Gd].[Be]) | %36
 ([dg]z/[Be]/.[Gd].[DB]) (fz/[A=c]/.[GB].=C) | .e z!<(! (!>![Ad-]2 d>!<)!_c.e.B) | %38
 .d z!<(! (!>![Ac-]2 c!<)!B{/c} (3BA=G) | [_FB] z [EA]2- [EA] z/!p! ([Ge]/.[cg].[=Fe]) | %40
 ([Gd]>[DB].[B,G]).E A2 B3/2B/4A/4 | [B,G]4- [B,G] z/!ff! ([db]/ .[gd'].[da]) | %42
 [gc'] z (!>![dgb-]2 ba{/b} (3agf) | a z ([Bg]2- [Bg]>[db]!ff!.[gd'].[be']) | %44
 (.[d'g'] z/ [be']/.[gd'].[db]) (.[=c'f']z/[ac']/.[gb].=c) | %45
 .e' z ([dd']2- [dd']>[_c_c'].[ee'].[Bb]) | [dd'] z !>![cc']2- [cc'][Bb] (3([Bb][Aa][=G=g]) | %47
 [Bb] z !>![Aea]2- [Aea] z/!pp! ([Ge]/.[cg].[=Fe]) | ([Gd]>[DB].[B,G]).E A2 B3/2B/4A/4 | %49
 [B,G]4"^m.g."!8va(! !arpeggio![bd'g'b']2!8va)! x2 |] %50
V:2
 z/"_con " x2 | ([G,,,G,,]>D, .D)D, D2 D,,2 | ([G,,,G,,]>D, .D).D, G,,2 x2 | %3
 (!>![E,,,E,,]>[E,B,] [G,D]) z (!>![A,,,A,,]>[E,=C] [A,E]) z | !>!D,,>[F,D] .[A,F].[F,D] E2 E,2 | %5
 (!>![A,,,A,,]>E, .E.E,) D2 (3(DCB,) | [A,D] z C2- C z/ (C/.E.C) | (B,>G,.E,.C,) (D,.D,,) D2 | %8
 z3/2 [D,B,]/ [G,D][B,G][K:treble] [DB] z[K:bass] !^![D,,D,]2 | %9
 z3/2 D,/ DD[K:treble] d2[K:bass] [D,,D,]2 | z3/2 [D,B,]/ [G,D][B,G][K:treble] [DB]2 [B,G]2 | %11
[K:bass] (z3/2 [G,D]/ [B,G]) z (z3/2 [E,=C]/ [A,G]) z | (z3/2 [F,D]/ [A,F][F,D]) x2 [DE=G]2 | %13
 z3/2 E,/ EE, [D_F]2 F2 | [D_F] z !>![CE]2- [CE] z/ (C/.E.C) | (B,>G,.E,.C,) D,.D,, D2 | %16
 z3/2 [G,D]/"^m.g." [B,G][I:staff -1]G[I:staff +1] [G,,,G,,] z x2 | %17
[K:treble] !^![B,FB]3 [GB] !^![B,FB]3 G | FE D2 z[K:bass] .A, .G,.F, | %19
 [E,,E,].[E,G,B,] z .[D,,D,] .[E,,E,].[E,G,B,] z .[D,,D,] | %20
 [E,,E,]/z/[D,,D,]/ z/ !fermata![F,,F,]2- [F,,F,] z x2 | %21
!<(! z3/2 A,/ F!<)!A,[K:treble] !>![G__B]2 A,2 | %22
[K:bass] z3/2 [F,D]/ [A,F][F,D] [A,F] z/ (D,/ F,)!^![=C,,=C,] | %23
 (!^![A,,,F,,]>F,.A,)!^![E,,E,] (!^![A,,,A,,]>A,.=C)"^slargando"!^![=G,,=G,] | %24
 !^![=C,,=C,]>!^![F,,,F,,]- !^!!fermata![C,F,=A,]2- [C,F,A,] z/ B,/ D[=C_E] | %25
 !^![DF]3 !^![=CE] !^![DF]3 !^![=CE] | !^![B,D]!^![F,=C] !^![D,B,]2 z .[A,,A,] .[G,,G,].[F,,F,] | %27
 .[E,,E,][E,G,B,] z .[D,,D,] .[E,,E,][E,G,B,] z .[D,,D,] | %28
 [E,,E,]/z/[D,,D,]/ z/ [F,,F,-]2 F,>(F,.D,).=C, | (!>!B,,>=C,.D,._E,) (!>!=E,>F,.D,.C,) | %30
 (!>![B,,,B,,]>[=C,,=C,].[D,,D,]).[_E,,_E,] (!>![=E,,=E,]>[F,,F,].[D,,D,]).[C,,C,] | %31
 [B,,,B,,]/z/[_A,,,_A,,]/z/[G,,,G,,]/z/[F,,,F,,]/ z/ [_E,,,_E,,] z [F,,,F,,] z | %32
 [B,,,,B,,,]2- [B,,,,B,,,] z [B,,,,B,,,]2- [B,,,,B,,,] z | %33
 [B,,,,B,,,]2- [B,,,,B,,,] z"^poco rit." [D,,D,]4 | ([G,,,G,,]>D, .D).D, D2 D,2 | %35
 ([G,,,G,,]>D, .D).D, G,,2 x2 | (!>![E,,,E,,]>[E,B,] [G,D]) z (!>![A,,,A,,]>[E,=C] [A,E]) z | %37
 (!>!D,,>[F,D] .[A,F]).[F,D] E2 E,2 | ([A,,,A,,]>E, .E).E, D2 (3(DCB,) | %39
 [A,D] z C2- C z/ (C/.E.C) | (B,>G,.E,.C,) (.D,.D,,) D2 | %41
 z3/2 [D,B,]/ [G,D][B,G][K:treble] [DB] z[K:bass] !^![D,,D,]2 | %42
 z3/2 D,/ DD[K:treble] d2[K:bass] [D,,D,]2 | z3/2 [D,B,]/ [G,D][B,G][K:treble] [DB]2 [B,G]2 | %44
[K:bass] (z3/2 [G,D]/ [B,G]) z (z3/2 [E,=C]/ [A,G]) z | (z3/2 [F,D]/ [A,F][F,D]) x2 [DE=G]2 | %46
 z3/2 E,/ EE, z E, (3(DCB,) | [D_F] z !>![CE]2- [CE] z/ (C/.E.C) | (B,>G,.E,.C,) (D,.D,,) D2 | %49
 z3/2[K:treble]!<(! [B,G]/ [DB][Gd]!<)! !arpeggio![Gdg]2 x2 |] %50
V:3
 x5/2 | x4 [C-F]2 C2 | C x B,2- B,3/2 x5/2 | x8 | x4 =G4 | x2 A2 [_F=G]2 F2 | x8 | %7
 x4 [C-E]2 [CF]2 | x8 | x4 [cf]2 c2- | c x7 | x8 | x2 a2 =g2 x2 | x2 e2 _f2 x2 | x8 | %15
 x4 [C-E]2 [CF]2 | x3 [Gd] x4 | x3/2 b/ x7/2 b/ x2 | x8 | x8 | x8 | x2 d2 =c2- c z | x2 A2- A x3 | %23
 x8 | x8 | x8 | x8 | x8 | x8 | x8 | x8 | x8 | x4 z F- F2- | F"_dim." F- F2- F F3 | %34
 x2 G2 [C-F]2 C2- | C x7 | x8 | x4 =G4 | x4 [_F=G]2 F2 | x8 | x4 [C-E]2 [CF]2 | x8 | x4 [cf]2 c2- | %43
 c x7 | x8 | x2 !>!a2 =g2 x2 | x2 e2 _f2 x2 | x8 | x4 [C-E]2 [CF]2 | %49
 x4!8va(! !arpeggio!g''2!8va)! x2 |] %50
V:4
 x5/2 | x8 | x8 | x8 | x8 | x8 | x8 | x8 | [G,,,G,,]8[K:treble][K:bass] | %9
 !^![G,,,G,,]8[K:treble][K:bass] | !^![G,,,G,,]8[K:treble] |[K:bass] [E,,,E,,]4 !^![A,,,A,,]4 | %12
 !^![D,,,D,,]4 !^![E,,,E,,]4 | [A,,,A,,]4 z E, (3DCB, | x8 | x8 | [G,,,G,,]4- x4 |[K:treble] x8 | %18
 B,2 B,2 x[K:bass] x3 | x8 | x8 | D,,4[K:treble] x4 |[K:bass] [D,,D,]4 x4 | x8 | %24
 x2 [F,,,F,,]2- [F,,,F,,] x3 | z3/2 !^![B,,,B,,]/ !^![B,,,B,,]2 z3/2 !^![B,,,B,,]/ !^![B,,,B,,]2 | %26
 x8 | x8 | x8 | x8 | x8 | x8 | x8 | x8 | x8 | x8 | x8 | x8 | x8 | x8 | x8 | %41
 [G,,,G,,]8[K:treble][K:bass] | !^![G,,,G,,]8[K:treble][K:bass] | !^![G,,,G,,]8[K:treble] | %44
[K:bass] !^![E,,,E,,]4 !^![A,,,A,,]4 | !^![D,,,D,,]4 !^![E,,,E,,]4 | [A,,,A,,]4 [D_F]2 F2 | x8 | %48
 x8 | [G,,,G,,]8[K:treble] |] %50

